icon-svg/scene-bright.svg

<?xml version="1.0" encoding="UTF-8"?>
<svg width="32px" fill="#44739e" height="32px" viewBox="0 0 32 32" version="1.1" xmlns="http://www.w3.org/2000/svg" xmlns:xlink="http://www.w3.org/1999/xlink">
            <path 
d="M16.013,19.333 L16.013,12.667 C17.851,12.667 19.346,14.162 19.346,16 C19.346,17.838 17.851,19.333 16.013,19.333 M16.013,11 C18.775,11 21.013,13.238 21.013,16 C21.013,18.762 18.775,21 16.013,21 C13.251,21 11.013,18.762 11.013,16 C11.013,14.421 11.76,13.029 12.904,12.113 C13.759,11.427 14.831,11 16.013,11 Z M16.013,23 C16.563,23 17.013,23.45 17.013,24 L17.013,27.013 C17.013,27.562 16.563,28.013 16.013,28.013 C15.463,28.013 15.013,27.562 15.013,27.013 L15.013,24 C15.013,23.45 15.463,23 16.013,23 Z M16.013,9 C15.463,9 15.013,8.55 15.013,8 L15.013,5 C15.013,4.45 15.463,4 16.013,4 C16.563,4 17.013,4.45 17.013,5 L17.013,8 C17.013,8.55 16.563,9 16.013,9 Z M9.013,16 C9.013,16.55 8.563,17 8.013,17 L5,17 C4.451,17 4,16.55 4,16 C4,15.45 4.451,15 5,15 L8.013,15 C8.563,15 9.013,15.45 9.013,16 Z M27.013,15 C27.563,15 28.013,15.45 28.013,16 C28.013,16.55 27.563,17 27.013,17 L24.013,17 C23.463,17 23.013,16.55 23.013,16 C23.013,15.45 23.463,15 24.013,15 L27.013,15 Z M9.6829,20.916 C10.0719,20.527 10.7079,20.527 11.0969,20.916 C11.4859,21.305 11.4859,21.941 11.0969,22.33 L8.9669,24.46 C8.5779,24.85 7.9419,24.85 7.5519,24.46 C7.1629,24.071 7.1629,23.436 7.5519,23.046 L9.6829,20.916 Z M22.3118,11.0449 C21.9228,11.4339 21.2868,11.4339 20.8978,11.0449 C20.5088,10.6559 20.5088,10.0199 20.8978,9.6309 L23.0188,7.5099 C23.4078,7.1199 24.0438,7.1199 24.4328,7.5099 C24.8218,7.8989 24.8218,8.5339 24.4328,8.9239 L22.3118,11.0449 Z M9.6683,11.1045 L7.5373,8.9735 C7.1483,8.5845 7.1483,7.9495 7.5373,7.5595 C7.9263,7.1705 8.5633,7.1705 8.9513,7.5595 L11.0823,9.6905 C11.4713,10.0795 11.4713,10.7155 11.0823,11.1045 C10.6933,11.4935 10.0573,11.4935 9.6683,11.1045 Z M22.3675,20.9053 L24.4885,23.0263 C24.8775,23.4153 24.8775,24.0513 24.4885,24.4403 C24.0995,24.8293 23.4635,24.8293 23.0745,24.4403 L20.9535,22.3193 C20.5635,21.9293 20.5635,21.2943 20.9535,20.9053 C21.3425,20.5153 21.9785,20.5153 22.3675,20.9053 Z"/>
</svg>

<svg xmlns="http://www.w3.org/2000/svg" fill="#44739e" viewBox="0 0 24 24"><path d="M16.013 19.333v-6.666c1.838 0 3.333 1.495 3.333 3.333s-1.495 3.333-3.333 3.333m0-8.333c2.762 0 5 2.238 5 5s-2.238 5-5 5-5-2.238-5-5c0-1.579.747-2.971 1.891-3.887.855-.686 1.927-1.113 3.109-1.113m0 12c.55 0 1 .45 1 1v3.013c0 .549-.45 1-1 1s-1-.451-1-1V24c0-.55.45-1 1-1m0-14c-.55 0-1-.45-1-1V5c0-.55.45-1 1-1s1 .45 1 1v3c0 .55-.45 1-1 1m-7 7c0 .55-.45 1-1 1H5c-.549 0-1-.45-1-1s.451-1 1-1h3.013c.55 0 1 .45 1 1m18-1c.55 0 1 .45 1 1s-.45 1-1 1h-3c-.55 0-1-.45-1-1s.45-1 1-1zM9.6829 20.916c.389-.389 1.025-.389 1.414 0s.389 1.025 0 1.414l-2.13 2.13c-.389.39-1.025.39-1.415 0-.389-.389-.389-1.024 0-1.414zm12.6289-9.8711c-.389.389-1.025.389-1.414 0s-.389-1.025 0-1.414l2.121-2.121c.389-.39 1.025-.39 1.414 0 .389.389.389 1.024 0 1.414zm-12.6435.0596-2.131-2.131c-.389-.389-.389-1.024 0-1.414.389-.389 1.026-.389 1.414 0l2.131 2.131c.389.389.389 1.025 0 1.414s-1.025.389-1.414 0m12.6992 9.8008 2.121 2.121c.389.389.389 1.025 0 1.414s-1.025.389-1.414 0l-2.121-2.121c-.39-.39-.39-1.025 0-1.414.389-.39 1.025-.39 1.414 0"/></svg>
